src/22/panel/indicator-keyboard-Hi.svg

<svg viewBox="0 0 22 22" xmlns="http://www.w3.org/2000/svg">
 <path style="fill:#ececec;fill-opacity:1" d="m 3 1 c -1.108 0 -2 0.892 -2 2 l 0 16 c 0 1.108 0.892 2 2 2 l 16 0 c 1.108 0 2 -0.892 2 -2 l 0 -16 c 0 -1.108 -0.892 -2 -2 -2 l -16 0 z m 12.496 5.113 c 0.25 0 0.467 0.083 0.65 0.25 c 0.183 0.167 0.275 0.396 0.275 0.688 c 0 0.283 -0.092 0.507 -0.275 0.674 c -0.183 0.167 -0.4 0.25 -0.65 0.25 c -0.258 0 -0.479 -0.083 -0.662 -0.25 c -0.183 -0.167 -0.275 -0.39 -0.275 -0.674 c 0 -0.292 0.092 -0.521 0.275 -0.688 c 0.183 -0.167 0.404 -0.25 0.662 -0.25 z m -9.672 0.725 l 1.574 0 l 0 3.463 l 3.764 0 l 0 -3.463 l 1.574 0 l 0 8.662 l -1.574 0 l 0 -3.838 l -3.764 0 l 0 3.838 l -1.574 0 l 0 -8.662 z m 8.922 2.125 l 1.512 0 l 0 6.537 l -1.512 0 l 0 -6.537 z"/>
</svg>

<svg viewBox="0 0 22 22" xmlns="http://www.w3.org/2000/svg"><path d="M3 1c-1.108 0-2 .892-2 2v16c0 1.108.892 2 2 2h16c1.108 0 2-.892 2-2V3c0-1.108-.892-2-2-2H3zm12.496 5.113c.25 0 .467.083.65.25.183.167.275.396.275.688 0 .283-.092.507-.275.674a.932.932 0 0 1-.65.25.948.948 0 0 1-.662-.25c-.183-.167-.275-.39-.275-.674 0-.292.092-.521.275-.688a.948.948 0 0 1 .662-.25zm-9.672.725h1.574v3.463h3.764V6.838h1.574V15.5h-1.574v-3.838H7.398V15.5H5.824V6.838zm8.922 2.125h1.512V15.5h-1.512V8.963z" fill="#ececec"/></svg>
